!!!COM:	Pierre de la Rue
**kern	**kern
*part2	*part1
*staff2	*staff1
*clefF4	*clefGv2
*k[]	*k[]
*M2/1	*M2/1
=1-	=1-
0r	1G
.	1B
=2	=2
1C	0c
1E	.
=3	=3
0F	2r
.	1c
.	[2c
=4	=4
2r	2c]
1F	1d
[2F	[2c
=5	=5
2F]	2c]
1G	2B
.	2G
[2F	[2A
=6	=6
2F]	2A]
2E	2G
2C	2r
2E	2G
=7	=7
1D	1A
1C	[1c
=8	=8
2r	0c_
1C	.
2D	.
=9	=9
2E	1c]
2F	.
1G	[1B
=10	=10
2E	1B]
2F	.
1D	1d
=11	=11
[0C	0e
=12	=12
0C]	1c
.	1A
=13	=13
0D	1r
.	1d
=14	=14
1r	2d
.	1B
1G	.
.	2G
=15	=15
2G	1G
1E	.
.	2r
2C	2G
=16	=16
1C	2A
.	2A
2r	[1c
[2C	.
=17	=17
4C]	1c]
4D	.
2E	.
1F	1c
=18	=18
1F	2r
.	2.c
1F	.
.	4B
.	2c
=19	=19
2r	2.A
2.F	.
.	4B
.	2c
4E	.
2F	[2d
=20	=20
2D	4d]
.	4c
2.G	2d
.	1B
4F	.
2G	.
=21	=21
1E	1G
[1C	2r
.	[2c
=22	=22
1C]	2c]
.	2A
2r	2B
[2F	2c
=23	=23
2F]	2.d
2D	.
.	4c
2E	2B
2F	2A
=24	=24
2.G	2G
.	1c
4F	.
2E	.
2D	2B
=25	=25
2C	2c
1F	2A
.	1B
2E	.
=26	=26
2F	2A
2D	1d
2F	.
2E	2c
=27	=27
2D	2.d
2.G	.
.	4c
.	4B
4F	4A
4G	4B
4F	4A
=28	=28
2G	2B
2GG	1G
1AA	.
.	2F
=29	=29
0GG	0G
==	==
*-	*-
